www/assets/icons/swap_horiz.svg

<svg xmlns="http://www.w3.org/2000/svg" width="24" height="24" viewBox="0 0 24 24" fill='currentColor'><path d="M6.99 11 3 15l3.99 4v-3H14v-2H6.99zM21 9l-3.99-4v3H10v2h7.01v3z"/></svg>

<svg width="24" height="24" viewBox="0 0 24 24" xmlns="http://www.w3.org/2000/svg" fill='currentColor'><path d="M6.99 11L3 15L6.99 19V16H14V14H6.99V11ZM21 9L17.01 5V8H10V10H17.01V13L21 9Z"/></svg>
